public/images/icons/32x32/a-propos-de-classe-a-12_32_purple.svg

<svg height="32" viewBox="0 0 32 32" width="32" xmlns="http://www.w3.org/2000/svg"><path d="m6.29401661.59562127c.24682736.00725418.51375305.04039258.80044485.09974493.32522744.07122282.60560737.17624351.8411398.3148972.19865783.11375868.35363086.30137806.464753.56269327.13188487.30434567.22440361.72294462.27788841 1.25579685.05514581.56648523.00880339 1.33213057-.13869505 2.29660629-.14766456.96447572-.45694621 2.56220807-.92834328 4.79319704-.47139707 2.23098895-.8052618 3.49766705-1.0015942 3.80019925-.19616629.3023672-.45362417.5152113-.77237363.637708-.16959.0633092-.45163095.1025477-.84595676.1185398-.39449191.0156625-.78931602-.0133542-1.18447234-.0875447-.39532242-.0741904-.733838-.195533-1.01521455-.3638629-.28170875-.1683298-.39714954-.4118393-.34582406-.7310231.0357119-.1612406.45246146-1.7109964 1.25008257-4.64926759.36276646-1.35405796.64032266-2.57704615.83233641-3.66863483-.57604124.33369212-1.25423512.72624198-2.03424944 1.17830906-.82585843.15299718-1.46086583-.19685197-1.9053544-1.04971229l-.38087156-.73085827c-.46940385-.91600464-.1431798-1.66977951.97833994-2.26132462.8408076-.54999846 1.73842203-.9793138 2.6930094-1.2876163.86921102-.27335056 1.67414061-.34935454 2.41495489-.22784709m15.41227569 9.71914553c.14019.2685694.2597833.6566678.3589461 1.164625.0989967.5081221.1202578.911883.063617 1.2114475-.0137864.137005-.0732509.2825831-.1783934.4370641l-.0043186.0309951-.0059797.0212679c-.006478.001319-.0124576.0059353-.0176068.0135192l-.0157797.0232463c-.0064779.0011541-.0124576.0057704-.0176068.0133543l-.0157796.0232463c-.0131221.0024731-.0182712.010057-.0157797.0230815-.0066441.0013189-.0093017.0051109-.0079729.0115407-.3900072.1152425-1.0422891.2740101-1.9565138.4766324-.9142246.2022926-2.0148155.403596-3.3012744.6039102-1.286791.2001493-2.4960126.3368246-3.6283289.4098609-1.1321503.0732013-1.8734629-.0075839-2.2236056-.2425203-.75775665-.4853703-.83881435-1.3444956-.2436714-2.5765515.595143-1.2322208 1.7266288-2.55726204 3.3947897-3.97545352 1.6679949-1.41802662 2.3438633-2.46246314 2.026941-3.13347446-.3167562-.67068158-.8864856-.96414598-1.7086898-.88006349-.2122782-.01302454-.469736.044844-.7727058.17344077-.3029698.12876163-.8394788.41299345-1.6091948.85286032-.7698821.44003175-1.3980794.36781972-1.88376118-.21713069-.48618013-.58462066-.48584793-1.34663892.00049831-2.28605476.48651237-.93941584 1.79057797-1.71000721 3.91186487-2.31226871.6481294-.14458893 1.2828046-.20262234 1.9038594-.17442997 1.1150418-.03940337 2.2559955.42618286 3.422861 1.39692355 1.1665333.97090556 1.6027168 2.13256299 1.3085504 3.48480741-.2944986 1.35240929-1.1750045 2.68272631-2.6410195 3.99161054-1.4663472 1.30888421-2.3795752 2.13223321-2.7398501 2.46988221l6.0462737-1.2520049c.0247491-.0113759.0594644-.0247302.1038136-.0400629.0455119-.0087379.081556-.0156624.107634-.0207733.0416916.0056055.073417.0128597.0955086.0219274l.079895.0451738c.0388678.0262139.0679356.0540765.0873696.0839176.0257458.028687.0509932.0707282.0754102.1264535" fill="#1e1169" fill-rule="evenodd" transform="translate(5 9)"/></svg>

<?xml version="1.0" encoding="UTF-8"?>
<svg width="32px" height="32px" viewBox="0 0 32 32" version="1.1" xmlns="http://www.w3.org/2000/svg" xmlns:xlink="http://www.w3.org/1999/xlink">
    <title>icone/32x32/classe12_32_purple</title>
    <g id="icone/32x32/classe12_32_purple" stroke="none" stroke-width="1" fill="none" fill-rule="evenodd">
        <g id="Group" transform="translate(5.000000, 9.000000)" fill="#1E1169">
            <path d="M6.29401661,0.595621275 C6.54084397,0.602875451 6.80776966,0.636013848 7.09446146,0.6953662 C7.4196889,0.766589022 7.70006883,0.871609712 7.93560126,1.0102634 C8.13425909,1.12402208 8.28923212,1.31164146 8.40035426,1.57295667 C8.53223913,1.87730234 8.62475787,2.29590129 8.67824267,2.82875352 C8.73338848,3.39523875 8.68704606,4.16088409 8.53954762,5.12535981 C8.39188306,6.08983553 8.08260141,7.68756788 7.61120434,9.91855685 C7.13980727,12.1495458 6.80594254,13.4162239 6.60961014,13.7187561 C6.41344385,14.0211233 6.15598597,14.2339674 5.83723651,14.3564641 C5.66764651,14.4197733 5.38560556,14.4590118 4.99127975,14.4750039 C4.59678784,14.4906664 4.20196373,14.4616497 3.80680741,14.3874592 C3.41148499,14.3132688 3.07296941,14.1919262 2.79159286,14.0235963 C2.50988411,13.8552665 2.39444332,13.611757 2.4457688,13.2925732 C2.4814807,13.1313326 2.89823026,11.5815768 3.69585137,8.64330561 C4.05861783,7.28924765 4.33617403,6.06625946 4.52818778,4.97467078 C3.95214654,5.3083629 3.27395266,5.70091276 2.49393834,6.15297984 C1.66807991,6.30597702 1.03307251,5.95612787 0.588583938,5.10326755 L0.207712381,4.37240928 C-0.261691466,3.45640464 0.0645325804,2.70262977 1.18605232,2.11108466 C2.02685992,1.5610862 2.92447435,1.13177086 3.87906172,0.82346836 C4.74827274,0.550117805 5.55320233,0.474113821 6.29401661,0.595621275" id="Fill-60"></path>
            <path d="M21.7062923,10.3147668 C21.8464823,10.5833362 21.9660756,10.9714346 22.0652384,11.4793918 C22.1642351,11.9875139 22.1854962,12.3912748 22.1288554,12.6908393 C22.115069,12.8278443 22.0556045,12.9734224 21.950462,13.1279034 L21.9461434,13.1588985 L21.9401637,13.1801664 C21.9336857,13.1814854 21.9277061,13.1861017 21.9225569,13.1936856 L21.9067772,13.2169319 C21.9002993,13.218086 21.8943196,13.2227023 21.8891704,13.2302862 L21.8733908,13.2535325 C21.8602687,13.2560056 21.8551196,13.2635895 21.8576111,13.276614 C21.850967,13.2779329 21.8483094,13.2817249 21.8496382,13.2881547 C21.459631,13.4033972 20.8073491,13.5621648 19.8931244,13.7647871 C18.9788998,13.9670797 17.8783089,14.1683831 16.59185,14.3686973 C15.305059,14.5688466 14.0958374,14.7055219 12.9635211,14.7785582 C11.8313708,14.8517595 11.0900582,14.7709743 10.7399155,14.5360379 C9.98215885,14.0506676 9.90110115,13.1915423 10.4962441,11.9594864 C11.0913871,10.7272656 12.2228729,9.40222436 13.8910338,7.98403288 C15.5590287,6.56600626 16.2348971,5.52156974 15.9179748,4.85055842 C15.6012186,4.17987684 15.0314892,3.88641244 14.209285,3.97049493 C13.9970068,3.95747039 13.739549,4.01533893 13.4365792,4.1439357 C13.1336094,4.27269733 12.5971004,4.55692915 11.8273844,4.99679602 C11.0575023,5.43682777 10.429305,5.36461574 9.94362322,4.77966533 C9.45744309,4.19504467 9.45777529,3.43302641 9.94412153,2.49361057 C10.4306339,1.55419473 11.7346995,0.783603363 13.8559864,0.181341857 C14.5041158,0.0367529328 15.138791,-0.0212804782 15.7598458,0.00691188908 C16.8748876,-0.032491478 18.0158413,0.433094751 19.1827068,1.40383544 C20.3492401,2.374741 20.7854236,3.53639843 20.4912572,4.88864285 C20.1967586,6.24105214 19.3162527,7.57136916 17.8502377,8.88025339 C16.3838905,10.1891376 15.4706625,11.0124866 15.1103876,11.3501356 L21.1566613,10.0981307 C21.1814104,10.0867548 21.2161257,10.0734005 21.2604749,10.0580678 C21.3059868,10.0493299 21.3420309,10.0424054 21.3681089,10.0372945 C21.4098005,10.0429 21.4415259,10.0501542 21.4636175,10.0592219 L21.5435125,10.1043957 C21.5823803,10.1306096 21.6114481,10.1584722 21.6308821,10.1883133 C21.6566279,10.2170003 21.6818753,10.2590415 21.7062923,10.3147668" id="Fill-64"></path>
        </g>
    </g>
</svg>
